!!!COM:	la Rue, Pierre de
!!!CDT:	~1452///-1518/11/20
!!!OPR:	Missa Puer natus est nobis
!!!ONM:	3
!!!OTL:	Credo
!!!AGN:	Mass; Credo
!!!SCT:	Rue1025c
!!!SCA:	Rue1025c
!!!voices-OPR:	4
!!!voices:	4
**kern	**kern	**kern	**kern
*Ivox	*Ivox	*Ivox	*Ivox
*I"Bassus	*I"Tenor	*I"Contra	*I"Discantus
*I'B	*I'T	*I'C	*I'D
*staff4	*staff3	*staff2	*staff1
*>[A,B]	*>[A,B]	*>[A,B]	*>[A,B]
*>A	*>A	*>A	*>A
*clefF4	*clefGv2	*clefGv2	*clefG2
*k[b-]	*k[b-]	*k[b-]	*k[b-]
*M3/1	*M3/1	*M3/1	*M3/1
*met(O)	*met(O)	*met(O)	*met(O)
!!section: Patrem omnipotentem
!!!OMD: Patrem omnipotentem
=1-	=1-	=1-	=1-
0.r	0.r	0G	1g
.	.	.	1dd
.	.	1d	1dd
=2	=2	=2	=2
0.r	0.r	0d	1r
.	.	.	1dd
.	.	1r	2cc\
.	.	.	[2dd\
=3	=3	=3	=3
0.r	0.r	1g	2dd\]
.	.	.	4cc\
.	.	.	4b-\
.	.	2f\	2a/
.	.	1g	2b-\
.	.	.	2g/
.	.	4f\	2cc\
.	.	4e\	.
=4	=4	=4	=4
0.r	0.r	2d\	2b-\
.	.	2e\	2.cc\
.	.	2c\	.
.	.	.	4b-\
.	.	2f\	2a/
.	.	2e\	2g/
.	.	[2f\	2a/
=5	=5	=5	=5
0.r	0.r	4f\]	2.f/
.	.	4e\	.
.	.	2d\	.
.	.	.	4d/
.	.	2c\	2e/
.	.	2d\	2f/
.	.	2.B-\	2d/
.	.	.	2dd\
.	.	4G/	.
=6	=6	=6	=6
0.r	0.r	2A/	2cc\
.	.	2B-\	2.dd\
.	.	2G/	.
.	.	.	4cc\
.	.	2d\	2b-\
.	.	2c\	2a/
.	.	[2d\	[2b-\
=7	=7	=7	=7
0.r	0.r	4d\]	4b-\]
.	.	4c\	4a/
.	.	2B-\	2g/
.	.	2A/	2f/
.	.	2G/	1g
.	.	1A	.
.	.	.	2f#i/
=8	=8	=8	=8
2r	0.r	1G	0g
2G\	.	.	.
2B-\	.	2r	.
2B-\	.	2d\	.
2A\	.	2f\	1r
[2d\	.	2f\	.
=9	=9	=9	=9
2d\]	0.r	1e	0.r
2c\	.	.	.
2.B-\	.	2d\	.
.	.	2g\	.
4G\	.	.	.
2A\	.	2f\	.
2G\	.	[2e\	.
=10	=10	=10	=10
1c	0.r	2e\]	0.r
.	.	4d\	.
.	.	4c\	.
2B-\	.	2d\	.
1A	.	2c\	.
.	.	1f	.
4G\	.	.	.
4F\	.	.	.
=11	=11	=11	=11
2G\	0.r	2e\	0.r
2F\	.	1d	.
2G\	.	.	.
2B-\	.	1g	.
1A	.	.	.
.	.	2f#i\	.
=12	=12	=12	=12
1G	[0.G	2g\	0.r
.	.	2d\	.
2r	.	2e-i\	.
2G\	.	2.d\	.
2E\	.	.	.
.	.	4c\	.
2C/	.	[2c\	.
=13	=13	=13	=13
1G	0.G]	2c\]	2r
.	.	2B-\	2dd\
2C/	.	2c\	2ee-i\
2BB-/	.	2d\	2.dd\
1C	.	2.e-i\	.
.	.	.	4cc\
.	.	.	[2cc\
.	.	4c\	.
=14	=14	=14	=14
1G	0.G	1d	2cc\]
.	.	.	2bni\
0C	.	0c	1cc
.	.	.	2cc\
.	.	.	2cc\
=15	=15	=15	=15
0.r	0d	2r	1ff
.	.	2a\	.
.	.	2b-\	2ff\
.	.	2.a\	1dd
.	[1d	.	.
.	.	4g\	.
.	.	[2g\	4cc\
.	.	.	4b-\
=16	=16	=16	=16
1r	1d]	2g\]	1a
.	.	2f#i\	.
[0c	[0e	1g	1g
.	.	1r	2r
.	.	.	2g/
=17	=17	=17	=17
0c]	0e]	0.r	2a/
.	.	.	2g/
.	.	.	1cc
1G	[1d	.	2.b-\
.	.	.	4a/
=18	=18	=18	=18
2.B-\	0.d]	0.r	2g/
.	.	.	2f/
4A\	.	.	.
2G\	.	.	2g/
2F\	.	.	2a/
2G\	.	.	1b-
2B-\	.	.	.
=19	=19	=19	=19
1F	[0.c	2r	0a
.	.	2f\	.
0F	.	2.f\	.
.	.	4g\	.
.	.	2a\	1r
.	.	[2a\	.
=20	=20	=20	=20
1r	0.c]	2a\]	2r
.	.	4g\	2a/
.	.	4f\	.
2r	.	2e\	2.a/
2A\	.	2f\	.
.	.	.	4b-\
2.A\	.	2e\	2cc\
.	.	[2a\	[2cc\
4B-\	.	.	.
=21	=21	=21	=21
2c\	0.r	2a\]	2cc\]
1c	.	4g\	4b-\
.	.	4f\	4a/
.	.	2e\	2g/
4B-\	.	2f\	2a/
4A\	.	.	.
2G\	.	2g\	2b-\
2A\	.	2c\	2f/
=22	=22	=22	=22
2B-\	0.r	2d\	2b-\
2F\	.	2c\	1cc
1B-	.	2d\	.
.	.	2B-\	1b-
1F	.	1c	.
.	.	.	2a/
=23	=23	=23	=23
0BB-	0.d	0B-	0.b-
1BB-	.	2r	.
.	.	2F/	.
=24	=24	=24	=24
1r	0.d	2G/	0.r
.	.	2B-\	.
2r	.	2B-\	.
2F\	.	2A/	.
2G\	.	1G	.
2B-\	.	.	.
=25	=25	=25	=25
2A\	1c	1r	2r
2A\	.	.	2f/
[0G	1e-i	1B-	2g/
.	.	.	2b-\
.	[1d	2B-\	2.b-\
.	.	[2B-\	.
.	.	.	4a/
=26	=26	=26	=26
1G]	1d]	2B-\]	2g/
.	.	4c\	2b-\
.	.	4d\	.
1C	1c	2e-i\	2cc\
.	.	2.c\	2.a/
1r	2r	.	.
.	.	4B-\	4g/
.	2f\	2A/	2a/
=27	=27	=27	=27
1r	2g\	2G/	2b-\
.	2.e\	2.c\	2.g/
2r	.	.	.
.	4d\	4d\	4f/
2C/	2e\	2c\	2g/
2F\	2f\	2F/	2a/
[2G\	[2B-\	[2d\	[2b-\
=28	=28	=28	=28
4G\]	4B-\]	2d\]	2b-\]
4F\	4A/	.	.
2G\	2B-\	1e-i	2b-\
2C/	4c\	.	2a/
.	4B-\	.	.
2E-i\	4A/	2c\	1g
.	4G/	.	.
1D	1A	1d	.
.	.	.	2f#i/
=29	=29	=29	=29
2r	0.G	0.r	1g
2G\	.	.	.
2G\	.	.	2g/
2.E\	.	.	2g/
.	.	.	2.e/
4D\	.	.	.
2C/	.	.	.
.	.	.	4d/
=30	=30	=30	=30
2.F\	0.r	1r	2c/
.	.	.	2.f/
4E\	.	.	.
2D\	.	1r	.
.	.	.	4e/
2.G\	.	.	2d/
.	.	2r	2.g/
4F\	.	.	.
4E\	.	2g\	.
4D\	.	.	4f/
=31	=31	=31	=31
0C	0.r	2g\	4e/
.	.	.	4d/
.	.	2.e\	2c/
.	.	.	2.cc\
.	.	4d\	.
.	.	2c\	.
.	.	.	4b-\
1r	.	2.f\	2a/
.	.	.	[2dd\
.	.	4e\	.
=32	=32	=32	=32
1r	0.r	2d\	4dd\]
.	.	.	4cc\
.	.	2.g\	4b-\
.	.	.	4a/
2r	.	.	1g
.	.	4f\	.
2c\	.	4e\	.
.	.	4d\	.
2.c\	.	1c	2r
.	.	.	2cc\
4B-\	.	.	.
=33	=33	=33	=33
2A\	0.r	0.r	2.cc\
2.d\	.	.	.
.	.	.	4b-\
.	.	.	4a/
4c\	.	.	4g/
4B-\	.	.	2.b-\
4A\	.	.	.
1G	.	.	.
.	.	.	4a/
.	.	.	[2g/
=34	=34	=34	=34
1A	0.r	2r	2g/]
.	.	2c\	2f/
0G	.	2B-\	2g/
.	.	1c	2e/
.	.	.	1d
.	.	2Bni\	.
=35	=35	=35	=35
0C	0G	1.c	0c
.	.	4B-\	.
.	.	4A/	.
1C	1G	1G	1r
=36	=36	=36	=36
1D	0d	1F	1f
0BB-	.	0B-	2f/
.	.	.	2f/
.	1d	.	1d
=37	=37	=37	=37
0C	0e-i	0.G	1g
.	.	.	1c
1C	1e-i	.	2r
.	.	.	2g/
=38	=38	=38	=38
2r	0d	0.r	2f/
2G\	.	.	2g/
2F\	.	.	2a/
2G\	.	.	2b-\
2A\	[1c	.	2.cc\
2B-\	.	.	.
.	.	.	4b-\
=39	=39	=39	=39
2c\	1c]	0g	1g
2c\	.	.	.
2G\	0d	.	1b-
1G	.	.	.
.	.	1g	2b-\
2G\	.	.	2b-\
=40	=40	=40	=40
2D\	2f\	2f\	2a/
2.G\	1g	1d	2.b-\
4F\	.	.	4a/
2D\	2f\	2.a\	1dd
1A	1e	.	.
.	.	4g\	.
.	.	2e\	2cc#i\
=41	=41	=41	=41
0.D	0.d	1f	0dd
.	.	2f\	.
.	.	1d	.
.	.	.	1r
.	.	4c\	.
.	.	4B-\	.
=42	=42	=42	=42
2r	0.r	2A/	0.r
1G	.	2G/	.
.	.	2.d\	.
4F\	.	.	.
4E\	.	4c\	.
2D\	.	2d\	.
2C/	.	[2e\	.
=43	=43	=43	=43
2.G\	0.r	2e\]	0.r
.	.	2d\	.
4F\	.	.	.
2G\	.	2.g\	.
2A\	.	.	.
.	.	4f\	.
2G\	.	2g\	.
[2c\	.	[2a\	.
=44	=44	=44	=44
4c\]	0.r	4a\]	0.r
4B-\	.	8g\L	.
.	.	8f\J	.
2c\	.	2e\	.
2d\	.	2d\	.
2B-\	.	1g	.
1A	.	.	.
.	.	2f#i\	.
=45	=45	=45	=45
0G	1r	0g	1b-
.	1d	.	2b-\
.	.	.	2b-\
1r	2d\	1r	2a/
.	2d\	.	[2dd\
=46	=46	=46	=46
0.r	1e-i	0.r	2dd\]
.	.	.	2cc\
.	1d	.	2b-\
.	.	.	2.a/
.	1c	.	.
.	.	.	4g/
.	.	.	2e/
=47	=47	=47	=47
0.r	0d	0.r	2f/
.	.	.	4d/
.	.	.	4e/
.	.	.	4f/
.	.	.	4g/
.	.	.	4a/
.	.	.	4b-\
.	4A/	.	1cc
.	4B-\	.	.
.	4c\	.	.
.	4d\	.	.
=48	=48	=48	=48
0.r	4e\	0.r	2cc\
.	4f\	.	.
.	1g	.	2.b-\
.	.	.	4a/
.	2g\	.	4g/
.	.	.	4f/
.	2.f\	.	2a/
.	.	.	4f/
.	4e\	.	4g/
=49	=49	=49	=49
0.r	4d\	0.r	4a/
.	4c\	.	4f/
.	2.d\	.	2.b-\
.	4B-\	.	4a/
.	2c\	.	1g
.	1A	.	.
.	.	.	2f#i/
=50	=50	=50	=50
1r	0G	1r	0.g
1r	.	1g	.
1G	1r	2g\	.
.	.	2g\	.
=51	=51	=51	=51
2G\	[0.d	2g\	1r
2G\	.	2g\	.
2G\	.	1d	1r
2G\	.	.	.
[1D	.	2r	1dd
.	.	2d\	.
=52	=52	=52	=52
1D]	0.d]	1f	2dd\
.	.	.	2dd\
2r	.	1f	2dd\
2D\	.	.	2dd\
2D\	.	[1f	[1a
2D\	.	.	.
=53	=53	=53	=53
1F	[0.c	1f]	1a]
2F\	.	2.f\	2r
1F	.	.	2a/
.	.	8e\L	.
.	.	8d\J	.
.	.	2.c\	2a/
4E\	.	.	2a/
4D\	.	4d\	.
=54	=54	=54	=54
0C	0c]	1e	2a/
.	.	.	1cc
.	.	1c	.
.	.	.	4b-\
.	.	.	4a/
1C	1e	1c	1g
=55	=55	=55	=55
0D	0d	0A	0f
2D\	1d	1f	2r
2BB-/	.	.	2f/
=56	=56	=56	=56
0BB-	0d	2f\	1b-
.	.	2f\	.
.	.	0f	1b-
1F	1c	.	2.cc\
.	.	.	4ee-i\
=57	=57	=57	=57
2BB-/	2.f\	2r	2dd\
2F\	.	1f	1cc
.	4e\	.	.
1G	2d\	.	.
.	2B-\	2e\	2.b-\
1F	1c	1f	.
.	.	.	4a/
.	.	.	2a/
=58	=58	=58	=58
0BB-	0B-	0d	0b-
1r	1B-	1d	1r
=59	=59	=59	=59
0B-	0d	0f	0b-
[1F	[1c	[1f	1a
=60	=60	=60	=60
1F]	1c]	1f]	1a
1G	2r	2d\	2g/
.	2B-\	2e\	1b-
2r	1c	1f	.
2F\	.	.	2a/
=61	=61	=61	=61
1G	2r	2r	2g/
.	2B-\	2e\	2.b-\
2r	1c	1f	.
.	.	.	4a/
2F\	.	.	2a/
1G	2r	2r	2g/
.	2B-\	2d\	2b-\
=62	=62	=62	=62
1C	4A/	1e-i	2cc\
.	4G/	.	.
.	2.c\	.	4b-\
.	.	.	2a/
1E-i	.	1c	.
.	4B-\	.	4g/
.	4A/	.	1g
.	4G/	.	.
1D	1A	[1d	.
.	.	.	2f#i/
=63	=63	=63	=63
*^	*	*	*
0.GGl\	0.Gl/	0.Gl	1d]	0.gl
*v	*v	*	*	*
.	.	0dl	.
!!LO:LB:i:g=z
=64||	=64||	=64||	=64||
*>B	*>B	*>B	*>B
*clefF4	*clefGv2	*clefGv2	*clefG2
*k[b-]	*k[b-]	*k[b-]	*k[b-]
*M2/1	*M2/1	*M2/1	*M2/1
*met(C|)	*met(C|)	*met(C|)	*met(C|)
!!section: Crucifixus
!!!OMD: Crucifixus
0G	0G	0g	0b-
=65	=65	=65	=65
1G	0d	1g	1b-
1G	.	1g	1b-
=66	=66	=66	=66
0D	0d	0f	0a
=67	=67	=67	=67
1r	0d	1r	1r
1D	.	1f	1a
=68	=68	=68	=68
1C	0e-i	1g	1cc
1C	.	1g	1cc
=69	=69	=69	=69
1G	[0d	1g	1b-
1G	.	1g	1b-
=70	=70	=70	=70
1D	0d]	1f	1a
2r	.	2r	2r
2D\	.	2f\	2a/
=71	=71	=71	=71
1F	0c	1f	1a
2C/	.	2e\	2g/
[2F\	.	[2f\	[2a/
=72	=72	=72	=72
2F\]	[0c	2f\]	4a/]
.	.	.	4b-\
4E\	.	2f\	1cc
4D\	.	.	.
2.C/	.	2.e\	.
.	.	.	4b-\
4D\	.	4f\	4a/
=73	=73	=73	=73
2E\	0c]	2g\	2g/
1F	.	1f	1a
2C/	.	2e\	2g/
=74	=74	=74	=74
2.F\	0r	2f\	2a/
.	.	1d	4g/
4G\	.	.	4f/
1A	.	.	4e/
.	.	.	4d/
.	.	2c#i\	2e/
=75	=75	=75	=75
0D	[0d	2d\	1d
.	.	2B-\	.
.	.	1A	2r
.	.	.	2d/
=76	=76	=76	=76
2r	0d]	0r	2.f/
2D\	.	.	.
.	.	.	4g/
2.F\	.	.	1a
4G\	.	.	.
=77	=77	=77	=77
0A	0c	0r	2r
.	.	.	2f/
.	.	.	2.a/
.	.	.	4b-\
=78	=78	=78	=78
2r	0c	0r	1.cc
2F\	.	.	.
2.A\	.	.	.
.	.	.	4b-\
4B-\	.	.	4a/
=79	=79	=79	=79
1c	0e	2r	0g
.	.	2c\	.
1c	.	2.e\	.
.	.	4f\	.
=80	=80	=80	=80
1G	[0d	1g	1b-
2G\	.	2g\	2b-\
[2D\	.	[2f\	[2a/
=81	=81	=81	=81
2D\]	0d]	4f\]	2a/]
.	.	4e\	.
1G	.	4d\	1b-
.	.	4c\	.
.	.	[1B-	.
4F\	.	.	4a/
4E\	.	.	4g/
=82	=82	=82	=82
0D	0d	2B-\]	2f/
.	.	4A/	4g/
.	.	4G/	4a/
.	.	2.F/	2b-\
.	.	.	[2a/
.	.	4G/	.
=83	=83	=83	=83
0D	0d	2A/	2a/]
.	.	2B-\	1g
.	.	1A	.
.	.	.	2f#i/
=84	=84	=84	=84
[0G	0r	1G	0g
.	.	2r	.
.	.	2G/	.
=85	=85	=85	=85
0G_	0r	0d	0r
=86	=86	=86	=86
0G]	0r	1e-i	2r
.	.	.	2g/
.	.	1d	[1dd
=87	=87	=87	=87
1r	0r	1B-	1dd]
2r	.	1c	1ee-i
2C/	.	.	.
=88	=88	=88	=88
0G	0r	2B-\	1dd
.	.	2.G/	.
.	.	.	1b-
.	.	4A/	.
.	.	2B-\	.
=89	=89	=89	=89
1A	0r	2A/	1cc
.	.	2F/	.
1G	.	2r	2b-\
.	.	[2B-\	[2g/
=90	=90	=90	=90
1E	0r	2B-\]	4g/]
.	.	.	4a/
.	.	2G/	2b-\
1F	.	2.A/	1a
.	.	4B-\	.
=91	=91	=91	=91
2E\	0G	0c	1g
2.C/	.	.	.
.	.	.	1g
4D\	.	.	.
2E\	.	.	.
=92	=92	=92	=92
0D	1d	0f	1a
.	1d	.	1b-
=93	=93	=93	=93
0C	1e-i	0g	1.cc
.	2e-\	.	.
.	[2c\	.	4b-\
.	.	.	4a/
=94	=94	=94	=94
1C	4c\]	[0g	2g/
.	4d\	.	.
.	2e-i\	.	1cc
1G	1d	.	.
.	.	.	2bni\
=95	=95	=95	=95
0C	1c	0g]	0cc
.	2r	.	.
.	2G/	.	.
=96	=96	=96	=96
0r	2A/	0r	2r
.	2B-\	.	1g
.	1c	.	.
.	.	.	2a/
=97	=97	=97	=97
0r	2d\	0r	2b-\
.	2e\	.	1cc
.	2.f\	.	.
.	.	.	2dd\
.	4e\	.	.
=98	=98	=98	=98
0r	2c\	0r	2ee\
.	2d\	.	1ff
.	1A	.	.
.	.	.	2ee\
=99	=99	=99	=99
0r	1f	0r	2cc\
.	.	.	2.dd\
.	2.f\	.	.
.	.	.	8cc\L
.	.	.	8b-\J
.	.	.	2a/
.	4e\	.	.
=100	=100	=100	=100
0r	2e\	0r	2g/
.	2.f\	.	2.a/
.	4e\	.	4g/
.	2e\	.	2g/
=101	=101	=101	=101
0r	4f\	0r	4a/
.	4e\	.	4g/
.	4d\	.	1cc
.	4c\	.	.
.	1d	.	.
.	.	.	2bni\
=102	=102	=102	=102
0r	0c	1r	0cc
.	.	1g	.
=103	=103	=103	=103
1c	0r	2g\	0r
.	.	2e\	.
2c\	.	2e\	.
2A\	.	[2f\	.
=104	=104	=104	=104
2A\	0r	4f\]	0r
.	.	4e\	.
2.B-\	.	4d\	.
.	.	4c\	.
.	.	2d\	.
4A\	.	.	.
4G\	.	[2e\	.
4F\	.	.	.
=105	=105	=105	=105
2G\	0r	4e\]	0r
.	.	4d\	.
2C/	.	1c	.
1D	.	.	.
.	.	2Bni\	.
=106	=106	=106	=106
0C	1r	0c	0g
.	[1c	.	.
=107	=107	=107	=107
0r	1c]	0r	1e
.	[1A	.	1f
=108	=108	=108	=108
0r	1A]	0r	1e
.	1B-	.	2r
.	.	.	2g/
=109	=109	=109	=109
0r	1A	0r	2a/
.	.	.	2.cc\
.	2r	.	.
.	.	.	4b-\
.	2c\	.	4a/
.	.	.	4g/
=110	=110	=110	=110
0r	2d\	0r	2.f/
.	2.f\	.	.
.	.	.	4e/
.	.	.	1d
.	4e\	.	.
.	4d\	.	.
.	4c\	.	.
=111	=111	=111	=111
0r	2B-\	0r	2r
.	2c\	.	2g/
.	1A	.	2a/
.	.	.	[2cc\
=112	=112	=112	=112
0r	2r	0r	4cc\]
.	.	.	4b-\
.	2c\	.	4a/
.	.	.	4g/
.	2d\	.	2.f/
.	[2f\	.	.
.	.	.	4g/
=113	=113	=113	=113
0r	4f\]	0r	2a/
.	4e\	.	.
.	4d\	.	2.b-\
.	4c\	.	.
.	2B-\	.	.
.	.	.	4a/
.	[2c\	.	4g/
.	.	.	4f/
=114	=114	=114	=114
0r	4c\]	0r	4e/
.	4B-\	.	4d/
.	4A/	.	1g
.	4G/	.	.
.	1A	.	.
.	.	.	2f#i/
=115	=115	=115	=115
0r	0G	2r	0g
.	.	2.G/	.
.	.	4A/	.
.	.	2B-\	.
=116	=116	=116	=116
2r	0r	2A/	0r
2.G\	.	2B-\	.
.	.	1G	.
4A\	.	.	.
2B-\	.	.	.
=117	=117	=117	=117
2A\	1r	2F/	2r
2B-\	.	1G	2.g/
2.G\	1G	.	.
.	.	.	4a/
.	.	[2D/	2b-\
4F\	.	.	.
=118	=118	=118	=118
2F\	0d	2D/]	2a/
2.G\	.	2.B-\	2b-\
.	.	.	1g
4A\	.	4A/	.
2B-\	.	2G/	.
=119	=119	=119	=119
2A\	0d	2D/	2f/
2B-\	.	2G/	2.g/
2.G\	.	4B-\	.
.	.	4c\	4a/
.	.	4d\	2b-\
4F\	.	4e\	.
=120	=120	=120	=120
2D\	0r	2f\	2a/
2G\	.	1g	2g/
1A	.	.	1cc
.	.	2f#i\	.
=121	=121	=121	=121
1G	0G	1g	1b-
2r	.	2r	2r
[2G\	.	[2g\	[2b-\
=122	=122	=122	=122
2G\]	[0d	2g\]	2b-\]
2G\	.	2g\	2b-\
2G\	.	2g\	2b-\
2G\	.	2g\	2b-\
=123	=123	=123	=123
[0D	0d]	2.f\	2a/
.	.	.	2.b-\
.	.	4g\	.
.	.	4a\	.
.	.	4b-\	4a/
.	.	[2a\	[2dd\
=124	=124	=124	=124
0D]	0d	2a\]	2dd\]
.	.	1g	4cc\
.	.	.	4b-\
.	.	.	2a/
.	.	2f\	2a/
=125	=125	=125	=125
2r	0r	2g\	2g/
2G\	.	2.d\	2.b-\
2G\	.	.	.
.	.	4c\	4a/
2C/	.	[2e-\	[2cc\
=126	=126	=126	=126
1G	0r	4e-\]	2cc\]
.	.	4d\	.
.	.	4c\	2b-\
.	.	4B-\	.
1F	.	1c	2.b-\
.	.	.	4a/
=127	=127	=127	=127
[0BB-	[0d	0B-	0b-
=128	=128	=128	=128
0BB-]	0d_	1r	1r
.	.	1f	1b-
=129	=129	=129	=129
1r	0d]	1f	1b-
1D	.	1f	1b-
=130	=130	=130	=130
1C	0e-i	0g	1cc
1C	.	.	4cc\
.	.	.	4b-\
.	.	.	4a/
.	.	.	4g/
=131	=131	=131	=131
2.D\	[0d	2r	2.f/
.	.	2.f\	.
4E\	.	.	4g/
2F\	.	.	2a/
.	.	4e\	.
[2G\	.	2d\	[2b-\
=132	=132	=132	=132
2G\]	0d]	2d\	2b-\]
2A\	.	2c\	2.a/
2.B-\	.	1B-	.
.	.	.	4g/
.	.	.	2g/
4A\	.	.	.
=133	=133	=133	=133
2F\	[0c	[0A	1a
2c\	.	.	.
2c\	.	.	1cc
2A\	.	.	.
=134	=134	=134	=134
2.c\	0c]	0A]	2a/
.	.	.	2.cc\
4B-\	.	.	.
4A\	.	.	.
4G\	.	.	4b-\
[2F\	.	.	4a/
.	.	.	4g/
=135	=135	=135	=135
2F\]	0r	0r	2.f/
2B-\	.	.	.
.	.	.	8g/L
.	.	.	8a/J
2G\	.	.	2b-\
[2B-\	.	.	2g/
=136	=136	=136	=136
4B-\]	0r	0r	1.b-
4A\	.	.	.
1G	.	.	.
2F\	.	.	[2a/
=137	=137	=137	=137
1G	0r	0r	2a/]
.	.	.	1g
1A	.	.	.
.	.	.	2f#i/
=138	=138	=138	=138
0G	[0d	1.B-	0g
.	.	2A/	.
=139	=139	=139	=139
1.B-	0d_	1G	0r
.	.	1F	.
2A\	.	.	.
=140	=140	=140	=140
1G	0d_	2G/	0r
.	.	1B-	.
1F	.	.	.
.	.	2A/	.
=141	=141	=141	=141
1G	0d]	2G/	0r
.	.	1B-	.
1D	.	.	.
.	.	[2A/	.
=142	=142	=142	=142
1F	[0c	2A/]	0r
.	.	2A/	.
2E\	.	2G/	.
[2F\	.	[2A/	.
=143	=143	=143	=143
2F\]	0c]	2A/]	0r
4E\	.	4G/	.
4D\	.	4F/	.
2C/	.	2G/	.
[2E-\	.	[2c\	.
=144	=144	=144	=144
2E-\]	0e-	2c\]	0r
2D\	.	1B-	.
1C	.	.	.
.	.	2A/	.
=145	=145	=145	=145
[0BB-	0d	[0B-	1.f
.	.	.	2f/
=146	=146	=146	=146
0BB-]	1d	0B-]	1b-
.	1d	.	1b-
=147	=147	=147	=147
0r	2c\	0r	1a
.	1d	.	.
.	.	.	2f/
.	2B-\	.	[2g/
=148	=148	=148	=148
0r	1c	0r	2g/]
.	.	.	2a/
.	2d\	.	2f/
.	2B-\	.	[2g/
=149	=149	=149	=149
0r	1c	0r	2g/]
.	.	.	2a/
.	2d\	.	2b-\
.	[2e-i\	.	[2cc\
=150	=150	=150	=150
0r	4e-\]	0r	2cc\]
.	4d\	.	.
.	4c\	.	1b-
.	4B-\	.	.
.	1c	.	.
.	.	.	2a/
=151	=151	=151	=151
1.B-	1B-	1.f	1b-
.	[1d	.	2r
2B-\	.	2f\	[2b-\
=152	=152	=152	=152
1B-	1d]	1f	2b-\]
.	.	.	2b-\
1B-	1d	1f	2b-\
.	.	.	2b-\
=153	=153	=153	=153
0F	[0c	0f	0a
=154	=154	=154	=154
1F	0c]	1f	1a
[1A	.	1e	[1cc
=155	=155	=155	=155
2A\]	0e	1c	2cc\]
2G\	.	.	2b-\
[1G	.	[1g	[1b-
=156	=156	=156	=156
1G]	[0d	1g]	1b-]
1G	.	1g	1b-
=157	=157	=157	=157
2D\	0d]	2f\	2a/
2G\	.	2g\	2b-\
2D\	.	2f\	2a/
2D\	.	2f\	2dd\
=158	=158	=158	=158
2G\	2r	1g	2.dd\
1G	2d\	.	.
.	.	.	4cc\
.	2.d\	2d\	2b-\
2F\	.	2f\	[2a/
.	4c\	.	.
=159	=159	=159	=159
2G\	1B-	2e-i\	4a/]
.	.	.	4g/
2G\	.	2.d\	1g
1D	1A	.	.
.	.	4c\	.
.	.	4B-\	2f#i/
.	.	4A/	.
=160	=160	=160	=160
*M3/1	*M3/1	*M3/1	*M3/1
*met(3)	*met(3)	*met(3)	*met(3)
1r	[0.G	0B-	0.g
1r	.	.	.
1G	.	1G	.
=161	=161	=161	=161
1.B-	0.G]	1.d	1r
.	.	.	1r
2B-\	.	2d\	.
1B-	.	1d	1g
=162	=162	=162	=162
0G	1r	0d	1.dd
.	1r	.	.
.	.	.	2dd\
2F\	1G	1d	1dd
2E\	.	.	.
=163	=163	=163	=163
1.D	1.d	0f	1r
.	.	.	1r
2E\	2d\	.	.
1F	1d	1f	1dd
=164	=164	=164	=164
0C	0.r	0g	1.ee
.	.	.	2dd\
1r	.	1f	1dd
=165	=165	=165	=165
0.r	1r	1e	0cc
.	1r	0d	.
.	1d	.	1bni
=166	=166	=166	=166
0C	1.e	0c	0cc
.	2d\	.	.
1F	1d	1r	1r
=167	=167	=167	=167
1E	0c	0.r	0.r
0D	.	.	.
.	1Bni	.	.
=168	=168	=168	=168
0.C	0.c	0.r	0.r
=169	=169	=169	=169
0.r	0.r	1f	0dd
.	.	1f	.
.	.	1g	1dd
=170	=170	=170	=170
0.r	0.r	1.a	1cc
.	.	.	1.ee
.	.	2g\	.
.	.	1g	.
.	.	.	2dd\
=171	=171	=171	=171
0.r	0.r	1f	0dd
.	.	1e	.
.	.	1e	1cc#i
=172	=172	=172	=172
0G	0d	0d	1.dd
.	.	.	2cc\
1G	1d	1r	2b-\
.	.	.	2a/
=173	=173	=173	=173
1.A	1c	0.r	1.cc
.	1.e	.	.
2G\	.	.	2b-\
1G	.	.	1b-
.	2d\	.	.
=174	=174	=174	=174
1F	0d	1r	1a
0E	.	1r	0g
.	1c#i	1G	.
=175	=175	=175	=175
0D	0.d	1A	1f
.	.	1f	1a
[1D	.	1d	2b-\
.	.	.	2a/
=176	=176	=176	=176
1D]	0.r	1f	0dd
0A	.	0e	.
.	.	.	1cc#i
=177	=177	=177	=177
0B-	1r	0d	0dd
.	1r	.	.
1B-	1G	1r	1r
=178	=178	=178	=178
1.G	1d	0g	1dd
.	1d	.	1dd
4F\	.	.	.
4E\	.	.	.
1D	1d	1f	1b-
=179	=179	=179	=179
0C	1.e	0g	1cc
.	.	.	1cc
.	2d\	.	.
1BB-	1d	[1G	1dd
=180	=180	=180	=180
1C	0c	1G]	1ee
0D	.	0F	1.ff
.	1B-	.	.
.	.	.	2ee\
=181	=181	=181	=181
1C	1c	1G	1ee
1D	1.f	1F	1.dd
1BB-	.	[1G	.
.	2e\	.	2cc\
=182	=182	=182	=182
1C	2d\	1G]	0cc
.	2c\	.	.
0G	0d	0g	.
.	.	.	1bni
=183	=183	=183	=183
0C	0.c	0e	1cc
.	.	.	1r
1r	.	1r	1a
=184	=184	=184	=184
0G	1r	0d	0b-
.	1r	.	.
1A	1A	1c	1cc
=185	=185	=185	=185
1G	0B-	1B-	0dd
1B-	.	1d	.
1A	1c	1e	1cc
=186	=186	=186	=186
1F	0d	1.f	1a
0G	.	.	1.b-
.	.	2e\	.
.	1c	1e	.
.	.	.	2a/
=187	=187	=187	=187
1.A	1A	1c	1a
.	1.B-	1d	1r
2G\	.	.	.
1G	.	1B-	1dd
.	2A/	.	.
=188	=188	=188	=188
0A	1A	1.c	1cc
.	1r	.	1a
.	.	2B-\	.
1r	1d	1B-	1b-
=189	=189	=189	=189
1.A	1c	0c	1a
.	1A	.	1cc
2G\	.	.	.
1G	1B-	1d	1b-
=190	=190	=190	=190
1A	1A	0c	1cc
1F	1c	.	1a
1G	1B-	1r	1b-
=191	=191	=191	=191
1E	1c	1g	1g
1F	1A	1a	1cc
1G	1B-	[1g	1b-
=192	=192	=192	=192
1B-	1G	1g]	1dd
2A\	1c	0e	2cc\
2G\	.	.	2b-\
2F\	1B-	.	2a/
2E\	.	.	2g/
=193	=193	=193	=193
1D	1d	1.f	1b-
1.F	2c\	.	1.a
.	2B-\	2e\	.
.	2A/	2d\	.
2E\	2G/	2c\	2g/
=194	=194	=194	=194
1G	1B-	0d	0g
0D	0A	.	.
.	.	1d	1f#i
=195	=195	=195	=195
*	*	*^	*
0.Gl	0.Gl	0.B-l\	0.dl/	0.gl
*	*	*v	*v	*
==	==	==	==
*-	*-	*-	*-
!!!RDF**kern: l=long note in original notation
!!!RDF**kern: i=editorial accidental
!!!ENC:	Chris Gage 05-11-2013
!!!END:	2013/08/01/
!!!EED:	Jesse Rodin
!!!EEV:	2013/08/02/
!!!ONB:	Translated from MusicXML and edited on 2013/08/02/ by Craig Sapp
!!muse2ps: T^@{OPR}^u^@{ONM}{. }@{OTL}^C^@{COM}^i2I150v85,85,85,150Q16
